X:106
T:Luke Joseph Manion 
R:hornpipe
C: 2003, 2010 L.E. McCullough 
M:4/4
L:1/8
K:G
dc|:BDGB AGFA|~G3F G2Bd|eGce dG (3Bcd|edcB A2dc|
BDGB AGFA|~G3F G2Bd|eGge fdaf|1 ~g3f g2dc:|2 ~g3f g2Bd|] 
|:eBgB eBfg|eGBd e2fe|dFAd fAfe|(3ded Ad f2ed|
eGce dBgB|(3efg dB A2dc|Bdge fdaf|1 ~g3f g2Bd:|2 ~g3f g2dc|]
<end>
<start>
